icons/op-reload-24.svg

<svg width="24" height="24" viewBox="0 0 24 24" fill="none" xmlns="http://www.w3.org/2000/svg">
<path d="M13.2283 5C9.98425 5 7.30709 7.33333 6.61417 10.4444L4 10.412L7.52756 16.2778L11.1811 10.4769L8.75591 10.4444C9.38583 8.53241 11.1496 7.13889 13.1969 7.13889C15.811 7.13889 17.9213 9.34259 17.9213 12C17.9213 14.6898 15.811 16.8611 13.1969 16.8611C12.252 16.8611 11.3701 16.537 10.6142 16.0509L9.48031 17.8333C10.5512 18.5463 11.8425 19 13.1969 19C16.9449 19 20 15.8565 20 12C20 8.14352 16.9449 5 13.2283 5Z" fill="black"/>
</svg>

<svg xmlns="http://www.w3.org/2000/svg" width="24" height="24" viewBox="0 0 24 24"><path d="M13.228 5c-3.244 0-5.921 2.333-6.614 5.444L4 10.412l3.528 5.866 3.653-5.801-2.425-.033c.63-1.912 2.394-3.305 4.441-3.305 2.614 0 4.724 2.204 4.724 4.861 0 2.69-2.11 4.861-4.724 4.861-.945 0-1.827-.324-2.583-.81L9.48 17.833c1.071.713 2.362 1.167 3.717 1.167C16.945 19 20 15.857 20 12c0-3.856-3.055-7-6.772-7Z"/></svg>
